apps/scalable/freemat.svg

<?xml version="1.0" standalone="no"?><!-- Generator: Gravit.io --><svg xmlns="http://www.w3.org/2000/svg" xmlns:xlink="http://www.w3.org/1999/xlink" style="isolation:isolate" viewBox="0 0 256 256" width="256" height="256"><defs><filter id="mAEFRMtwoBmsIR0bTZqZMabYln0rh8wK" x="-200%" y="-200%" width="400%" height="400%" filterUnits="objectBoundingBox" color-interpolation-filters="sRGB"><feGaussianBlur xmlns="http://www.w3.org/2000/svg" in="SourceGraphic" stdDeviation="4.294"/><feOffset xmlns="http://www.w3.org/2000/svg" dx="0" dy="4" result="pf_100_offsetBlur"/><feFlood xmlns="http://www.w3.org/2000/svg" flood-color="#000000" flood-opacity="0.4"/><feComposite xmlns="http://www.w3.org/2000/svg" in2="pf_100_offsetBlur" operator="in" result="pf_100_dropShadow"/><feBlend xmlns="http://www.w3.org/2000/svg" in="SourceGraphic" in2="pf_100_dropShadow" mode="normal"/></filter></defs><g filter="url(#mAEFRMtwoBmsIR0bTZqZMabYln0rh8wK)"><path d=" M 165.685 11.947 C 239.74 11.947 250.324 22.504 250.324 96.491 L 250.324 155.742 C 250.324 229.728 239.74 240.285 165.685 240.285 L 90.315 240.285 C 16.26 240.285 5.676 229.728 5.676 155.742 L 5.676 96.491 C 5.676 22.504 16.26 11.947 90.315 11.947 L 165.685 11.947 L 165.685 11.947 Z " id="Path" fill="rgb(217,217,217)"/></g><path d=" M 77.129 75.377 C 67.606 86.11 56.445 100.101 55.844 102.802 C 55.139 105.968 55.367 106.326 57.96 106.154 C 59.558 106.049 63.056 103.954 65.733 101.501 C 68.658 98.822 72.243 96.855 74.714 96.576 C 78.552 96.143 79.668 96.837 91.372 106.95 C 92.891 108.263 93.756 109.038 94.893 110.033 C 94.826 110.409 94.771 110.792 94.744 111.183 C 94.613 113.096 94.966 114.986 94.471 117.664 C 94.051027 120.002024 93.357947 122.282642 92.406 124.459 C 89.652 130.85 88.301 135.126 87.146 139.039 C 86.214 142.196 85.592 145.163 85.291 149.242 C 84.739 156.728 84.936 163.005 89.38 166.866 L 89.378 166.868 L 89.385 166.872 C 89.388 166.875 89.391 166.876 89.395 166.881 C 89.398 166.884 89.401 166.885 89.405 166.89 C 89.406954 166.891909 89.409363 166.893286 89.412 166.894 L 89.413 166.893 C 93.878 170.729 100.196 170.082 107.625 168.538 C 111.673 167.697 114.563 166.69 117.602 165.354 C 121.37 163.697 125.474 161.801 131.51 158.246 C 133.568078 157.020281 135.760537 156.035788 138.044 155.312 C 140.662 154.469 142.604 154.561 144.503 154.177 C 144.744 154.13 144.972 154.055 145.206 153.991 C 147.456 155.748 150.362 158.136 153.623 160.954 C 169.012 174.251 169.483 175.38 163.441 184.433 C 156.307 195.121 158.126 199.342 167.008 192.706 C 173.803 187.629 199.24 157.299 200.156 153.182 C 200.86 150.017 200.634 149.66 198.041 149.833 C 196.443 149.937 192.944 152.031 190.266 154.484 C 187.342 157.163 183.756 159.13 181.285 159.409 C 177.447 159.842 176.331 159.148 164.627 149.034 C 160.754 145.688 158.178 143.437 156.316 141.671 C 156.37 141.341 156.421 141.008 156.445 140.666 C 156.576 138.754 156.223 136.864 156.717 134.185 C 157.137222 131.846916 157.830641 129.566289 158.783 127.39 C 161.537 120.999 162.887 116.724 164.043 112.81 C 164.975 109.653 165.597 106.686 165.898 102.607 C 166.45 95.121 166.253 88.844 161.809 84.983 L 161.81 84.981 L 161.804 84.977 L 161.786 84.964 L 161.78 84.959 L 161.778 84.961 C 157.313 81.124 150.996 81.772 143.567 83.316 C 139.518 84.157 136.628 85.164 133.589 86.5 C 129.822 88.157 125.717 90.053 119.681 93.607 C 117.62345 94.833734 115.43087 95.81828 113.147 96.541 C 110.529 97.385 108.588 97.292 106.689 97.677 C 106.4 97.735 106.125 97.819 105.849 97.899 C 104.651 96.905 103.735 96.204 102.383 95.036 C 86.994 81.738 86.521 80.611 92.563 71.558 C 99.697 60.87 97.878 56.649 88.996 63.285 C 87.297 64.554 84.432 67.401 81.077 71.023 C 79.746003 72.461105 78.430923 73.91386 77.132 75.381 L 77.129 75.377 L 77.129 75.377 Z  M 101.721 111.677 C 111.635 100.46 133.07 96.566 143.542 105.615 C 154.013 114.663 154.465 131.091 144.551 142.308 C 134.638 153.525 118.112 155.283 107.64 146.234 C 97.169 137.186 91.807 122.893 101.721 111.677 L 101.721 111.677 Z " id="Compound Path" fill="rgb(55,166,230)"/><path d=" M 131.735 55.501 C 117.294 55.474 99.295 56.37 96.842 57.7 C 93.968 59.259 93.845 59.664 95.683 61.482 C 96.815 62.601 100.711 63.828 104.341 64.207 C 108.306 64.621 112.164 65.997 114.002 67.653 C 116.857 70.225 117.063 71.513 117.063 86.882 C 117.063 88.877 117.087 89.549 116.659 91.532 C 116.038 94.409 112.78 95.134 110.943 96.239 C 108.885297 97.46544 106.692752 98.449971 104.409 99.173 C 97.73 101.328 93.586 103.136 89.845 104.851 C 86.827 106.234 84.159 107.723 80.854 110.184 C 74.79 114.699 70.14 118.976 70.123 124.826 L 70.121 124.826 L 70.121 124.87 L 70.123 124.87 C 70.14 130.719 74.79 134.997 80.854 139.512 C 84.159 141.973 86.827 143.461 89.845 144.845 C 93.586 146.56 97.73 148.368 104.409 150.523 C 106.692752 151.246029 108.885297 152.23056 110.943 153.457 C 113.334 154.673 116.334 155.653 116.662 157.919 C 116.84 159.446 116.899 164.486 116.899 168.768 C 116.899 188.975 116.349 190.069 105.479 191.528 C 92.645 193.25 90.628 197.382 101.526 199.628 C 109.864 201.346 149.7 200.326 153.438 198.299 C 156.312 196.74 156.435 196.337 154.597 194.52 C 153.465 193.4 149.569 192.171 145.939 191.792 C 141.974 191.378 138.116 190.002 136.278 188.346 C 133.423 185.774 133.217 184.486 133.217 169.117 C 133.217 164.031 133.046 160.616 133.356 158.083 C 134.498 155.413 138.035 154.209 139.32 153.457 C 141.377794 152.230735 143.570318 151.246213 145.854 150.523 C 152.533 148.368 156.678 146.56 160.419 144.845 C 163.436 143.461 166.105 141.973 169.41 139.512 C 175.473 134.997 180.124 130.719 180.14 124.87 L 180.143 124.87 L 180.143 124.83 L 180.14 124.83 C 180.124 118.981 175.473 114.704 169.41 110.188 C 166.105 107.728 163.436 106.239 160.419 104.856 C 156.678 103.14 148.056 98.676 141.377 96.521 C 136.49 94.152 135.419 93.464 134.305 90.891 C 133.344 88.67 133.608 87.243 133.608 85.467 C 133.608 65.26 133.931 65.937 144.801 64.478 C 157.635 62.756 159.652 58.624 148.754 56.378 C 146.669 55.948 142.616 55.689 137.651 55.575 C 135.679316 55.529967 133.707197 55.506632 131.735 55.505 L 131.735 55.501 L 131.735 55.501 Z  M 125.131 99.947 C 140.196 99.947 152.409 111.094 152.409 124.844 C 152.409 138.595 140.196 149.742 125.131 149.742 C 110.065 149.742 97.852 138.595 97.852 124.844 C 97.852 111.094 110.065 99.947 125.131 99.947 L 125.131 99.947 Z " id="Compound Path" fill="rgb(39,39,39)"/><path d=" M 129.802 55.501 C 115.361 55.474 97.362 56.37 94.909 57.7 C 92.035 59.259 91.912 59.664 93.75 61.482 C 94.882 62.601 98.778 63.828 102.408 64.207 C 106.373 64.621 110.23 65.997 112.068 67.653 C 114.924 70.225 115.129 71.513 115.129 86.882 C 115.129 88.877 115.154 89.549 114.726 91.532 C 114.105 94.409 110.847 95.134 109.01 96.239 C 106.952297 97.46544 104.759752 98.449971 102.476 99.173 C 95.797 101.328 91.652 103.136 87.911 104.851 C 84.894 106.234 82.225 107.723 78.921 110.184 C 72.857 114.699 68.206 118.976 68.19 124.826 L 68.188 124.826 L 68.188 124.87 L 68.19 124.87 C 68.206 130.719 72.857 134.997 78.921 139.512 C 82.225 141.973 84.894 143.461 87.911 144.845 C 91.652 146.56 95.797 148.368 102.476 150.523 C 104.759752 151.246029 106.952297 152.23056 109.01 153.457 C 111.401 154.673 114.401 155.653 114.729 157.919 C 114.907 159.446 114.965 164.486 114.965 168.768 C 114.965 188.975 114.416 190.069 103.546 191.528 C 90.712 193.25 88.695 197.382 99.593 199.628 C 107.931 201.346 147.767 200.326 151.504 198.299 C 154.378 196.74 154.502 196.337 152.664 194.52 C 151.531 193.4 147.636 192.171 144.005 191.792 C 140.04 191.378 136.183 190.002 134.345 188.346 C 131.49 185.774 131.284 184.486 131.284 169.117 C 131.284 164.031 131.113 160.616 131.422 158.083 C 132.565 155.413 136.101 154.209 137.387 153.457 C 139.444703 152.23056 141.637248 151.246029 143.921 150.523 C 150.6 148.368 154.745 146.56 158.486 144.845 C 161.503 143.461 164.172 141.973 167.476 139.512 C 173.54 134.997 178.191 130.719 178.207 124.87 L 178.209 124.87 L 178.209 124.83 L 178.207 124.83 C 178.191 118.981 173.54 114.704 167.476 110.188 C 164.172 107.728 161.503 106.239 158.486 104.856 C 154.745 103.14 146.122 98.676 139.443 96.521 C 134.557 94.152 133.485 93.464 132.372 90.891 C 131.411 88.67 131.674 87.243 131.674 85.467 C 131.674 65.26 131.998 65.937 142.867 64.478 C 155.701 62.756 157.719 58.624 146.82 56.378 C 144.736 55.948 140.683 55.689 135.717 55.575 C 133.74565 55.529967 131.773864 55.506632 129.802 55.505 L 129.802 55.501 L 129.802 55.501 Z  M 123.197 99.947 C 138.263 99.947 150.476 111.094 150.476 124.844 C 150.476 138.595 138.263 149.742 123.197 149.742 C 108.132 149.742 95.918 138.595 95.918 124.844 C 95.918 111.094 108.132 99.947 123.197 99.947 L 123.197 99.947 Z " id="Compound Path" fill="rgb(35,77,184)"/><g opacity="0.4"><linearGradient id="_lgradient_81" x1="0.5166666666666668" y1="0" x2="0.5166666666666666" y2="1.0000000000000002" gradientTransform="matrix(244.65,0,0,228.34,5.68,11.95)" gradientUnits="userSpaceOnUse"><stop offset="0%" stop-opacity="1" style="stop-color:rgb(255,255,255)"/><stop offset="12.5%" stop-opacity="0.09803922" style="stop-color:rgb(255,255,255)"/><stop offset="92.500001%" stop-opacity="0.09803922" style="stop-color:rgb(0,0,0)"/><stop offset="100%" stop-opacity="0.49803922" style="stop-color:rgb(0,0,0)"/></linearGradient><path d=" M 165.06803 11.951234 C 169.395994 11.941409 173.723944 11.990533 178.051908 12.088781 C 181.927398 12.167379 185.802873 12.31475 189.678362 12.540721 C 193.1309 12.737216 196.583423 13.022134 200.026115 13.395476 C 203.085193 13.729518 206.144271 14.181458 209.173842 14.741469 C 211.888645 15.242533 214.57394 15.881143 217.219897 16.6573 C 219.619947 17.354858 221.970814 18.219439 224.242988 19.241215 C 226.357793 20.184394 228.384061 21.304417 230.302129 22.591462 C 232.141505 23.829383 233.862851 25.244151 235.436659 26.80629 C 237.000621 28.378252 238.417046 30.087764 239.656409 31.924995 C 240.944972 33.840824 242.066305 35.864728 243.020409 37.967229 C 244.043389 40.246576 244.908985 42.584873 245.617197 44.972292 C 246.394255 47.615155 247.033606 50.297317 247.535265 53.008956 C 248.095924 56.034984 248.548399 59.080665 248.882828 62.13617 C 249.256611 65.574836 249.541856 69.013506 249.738578 72.462003 C 249.964823 76.323139 250.112361 80.194101 250.200884 84.055237 C 250.289421 88.378131 250.338591 92.701032 250.32876 97.014106 L 250.32876 155.225886 C 250.338591 159.54878 250.289421 163.861854 250.200884 168.184747 C 250.112361 172.05571 249.964823 175.916853 249.738578 179.777981 C 249.541856 183.226485 249.256611 186.674975 248.882828 190.103826 C 248.548399 193.15933 248.095924 196.214835 247.535265 199.240851 C 247.033606 201.942664 246.394255 204.624837 245.617197 207.267703 C 244.908985 209.655115 244.043389 212.003235 243.020409 214.272755 C 242.066305 216.38509 240.944972 218.399156 239.656409 220.314999 C 238.417046 222.152226 237.000621 223.871561 235.436659 225.433697 C 233.862851 226.995832 232.141505 228.410601 230.302129 229.648532 C 228.384061 230.935575 226.357793 232.055598 224.242988 232.998768 C 221.970814 234.020552 219.619947 234.885137 217.219897 235.592507 C 214.57394 236.368672 211.888645 237.007276 209.173842 237.498515 C 206.144271 238.068354 203.085193 238.510465 200.026115 238.844519 C 196.583423 239.21785 193.1309 239.502777 189.678362 239.699269 C 185.802873 239.925235 181.927398 240.072615 178.051908 240.161035 C 173.723944 240.249454 169.395994 240.298581 165.06803 240.288762 L 90.941963 240.288762 C 86.614006 240.298581 82.286049 240.249454 77.9581 240.161035 C 74.08261 240.072615 70.20712 239.925235 66.331638 239.699269 C 62.879108 239.502777 59.426578 239.21785 55.983886 238.844519 C 52.924808 238.510465 49.865733 238.068354 46.836162 237.498515 C 44.121356 237.007276 41.436057 236.368672 38.7901 235.592507 C 36.390053 234.885137 34.039187 234.020552 31.767009 232.998768 C 29.652213 232.055598 27.625943 230.935575 25.707871 229.648532 C 23.868489 228.410601 22.147143 226.995832 20.573343 225.433697 C 19.009377 223.871561 17.592955 222.152226 16.353586 220.314999 C 15.065036 218.399156 13.943701 216.38509 12.989584 214.272755 C 11.966612 212.003235 11.101021 209.655115 10.392811 207.267703 C 9.615746 204.624837 8.976389 201.942664 8.47474 199.240851 C 7.914072 196.214835 7.461604 193.15933 7.127172 190.103826 C 6.753394 186.674975 6.468142 183.226485 6.271417 179.777981 C 6.045183 175.916853 5.897639 172.05571 5.809112 168.184747 C 5.720586 163.861854 5.671405 159.54878 5.681241 155.225886 L 5.681241 97.014106 C 5.671405 92.701032 5.720586 88.378131 5.809112 84.055237 C 5.897639 80.194101 6.045183 76.323139 6.271417 72.462003 C 6.468142 69.013506 6.753394 65.574836 7.127172 62.13617 C 7.461604 59.080665 7.914072 56.034984 8.47474 53.008956 C 8.976389 50.297317 9.615746 47.615155 10.392811 44.972292 C 11.101021 42.584873 11.966612 40.246576 12.989584 37.967229 C 13.943701 35.864728 15.065036 33.840824 16.353586 31.924995 C 17.592955 30.087764 19.009377 28.378252 20.573343 26.80629 C 22.147143 25.244151 23.868489 23.829383 25.707871 22.591462 C 27.625943 21.304417 29.652213 20.184394 31.767009 19.241215 C 34.039187 18.219439 36.390053 17.354858 38.7901 16.6573 C 41.436057 15.881143 44.121356 15.242533 46.836162 14.741469 C 49.865733 14.181458 52.924808 13.729518 55.983886 13.395476 C 59.426578 13.022134 62.879108 12.737216 66.331638 12.540721 C 70.20712 12.31475 74.08261 12.167379 77.9581 12.088781 C 82.286049 11.990533 86.614006 11.941409 90.941963 11.951234 L 165.06803 11.951234 Z  M 165.077876 15.959741 C 169.376317 15.949916 173.674759 15.99904 177.973216 16.087463 C 181.799522 16.175886 185.625827 16.323257 189.452133 16.539402 C 192.835809 16.735898 196.219486 17.010992 199.583486 17.384332 C 202.554026 17.698726 205.514751 18.131016 208.445953 18.681203 C 211.023049 19.152792 213.580483 19.761928 216.098564 20.498786 C 218.321569 21.147221 220.495374 21.952852 222.600334 22.896029 C 224.508571 23.750785 226.338116 24.762737 228.069293 25.922059 C 229.692286 27.012609 231.207063 28.260355 232.59398 29.645648 C 233.980897 31.030941 235.230091 32.543956 236.331763 34.165043 C 237.492434 35.894202 238.505568 37.711787 239.361333 39.607968 C 240.305606 41.720292 241.112187 43.891565 241.761369 46.102139 C 242.508934 48.617282 243.108947 51.161898 243.590914 53.735987 C 244.131912 56.663768 244.564709 59.6112 244.889308 62.578282 C 245.263091 65.938355 245.538505 69.308252 245.735227 72.687976 C 245.951626 76.509812 246.10901 80.321821 246.187687 84.143656 C 246.276225 88.437084 246.325394 92.720685 246.325394 97.014106 C 246.325394 97.014106 246.325394 97.014106 246.325394 97.014106 L 246.325394 155.225886 C 246.325394 155.225886 246.325394 155.225886 246.325394 155.225886 C 246.325394 159.519306 246.276225 163.802907 246.187687 168.096328 C 246.10901 171.918164 245.951626 175.739999 245.735227 179.552015 C 245.538505 182.931739 245.263091 186.301629 244.889308 189.671533 C 244.564709 192.628784 244.131912 195.576216 243.590914 198.503994 C 243.108947 201.078094 242.508934 203.622706 241.761369 206.137845 C 241.112187 208.358253 240.305606 210.5197 239.361333 212.63202 C 238.505568 214.528209 237.492434 216.355617 236.331763 218.074952 C 235.230091 219.705853 233.980897 221.218876 232.59398 222.604172 C 231.207063 223.979634 229.692286 225.227385 228.069293 226.317935 C 226.338116 227.477251 224.508571 228.489201 222.600334 229.343951 C 220.495374 230.296956 218.321569 231.092775 216.098564 231.741198 C 213.580483 232.478056 211.023049 233.087202 208.445953 233.558787 C 205.514751 234.108972 202.554026 234.541264 199.583486 234.865483 C 196.219486 235.228995 192.835809 235.513922 189.452133 235.70058 C 185.625827 235.916726 181.799522 236.073926 177.973216 236.152526 C 173.674759 236.25078 169.376317 236.290072 165.077876 236.290072 C 165.077876 236.290072 165.077876 236.290072 165.06803 236.290072 L 90.941963 236.290072 C 90.932125 236.290072 90.932125 236.290072 90.932125 236.290072 C 86.633683 236.290072 82.335234 236.25078 78.036784 236.152526 C 74.210479 236.073926 70.384173 235.916726 66.557868 235.70058 C 63.174195 235.513922 59.790522 235.228995 56.426518 234.865483 C 53.455967 234.541264 50.495253 234.108972 47.564048 233.558787 C 44.986944 233.087202 42.429517 232.478056 39.911433 231.741198 C 37.688439 231.092775 35.514626 230.296956 33.409665 229.343951 C 31.501429 228.489201 29.671886 227.477251 27.940703 226.317935 C 26.31772 225.227385 24.802935 223.979634 23.416022 222.604172 C 22.029109 221.218876 20.779904 219.705853 19.678243 218.074952 C 18.517564 216.355617 17.504428 214.528209 16.648674 212.63202 C 15.704392 210.5197 14.897819 208.358253 14.248626 206.137845 C 13.50107 203.622706 12.901057 201.078094 12.419081 198.503994 C 11.878086 195.576216 11.445291 192.628784 11.120694 189.671533 C 10.746916 186.301629 10.471501 182.931739 10.274776 179.552015 C 10.058378 175.739999 9.900997 171.918164 9.822307 168.096328 C 9.733781 163.802907 9.6846 159.519306 9.6846 155.225886 C 9.6846 155.225886 9.6846 155.225886 9.6846 155.225886 L 9.6846 97.014106 C 9.6846 97.014106 9.6846 97.014106 9.6846 97.014106 C 9.6846 92.720685 9.733781 88.437084 9.822307 84.143656 C 9.900997 80.321821 10.058378 76.509812 10.274776 72.687976 C 10.471501 69.308252 10.746916 65.938355 11.120694 62.578282 C 11.445291 59.6112 11.878086 56.663768 12.419081 53.735987 C 12.901057 51.161898 13.50107 48.617282 14.248626 46.102139 C 14.897819 43.891565 15.704392 41.720292 16.648674 39.607968 C 17.504428 37.711787 18.517564 35.894202 19.678243 34.165043 C 20.779904 32.543956 22.029109 31.030941 23.416022 29.645648 C 24.802935 28.260355 26.31772 27.012609 27.940703 25.922059 C 29.671886 24.762737 31.501429 23.750785 33.409665 22.896029 C 35.514626 21.952852 37.688439 21.147221 39.911433 20.498786 C 42.429517 19.761928 44.986944 19.152792 47.564048 18.681203 C 50.495253 18.131016 53.455967 17.698726 56.426518 17.384332 C 59.790522 17.010992 63.174195 16.735898 66.557868 16.539402 C 70.384173 16.323257 74.210479 16.175886 78.036784 16.087463 C 82.335234 15.99904 86.633683 15.949916 90.932125 15.959741 C 90.932125 15.959741 90.932125 15.959741 90.941963 15.959741 L 165.06803 15.959741 C 165.077876 15.959741 165.077876 15.959741 165.077876 15.959741 Z " fill-rule="evenodd" id="highlight" fill="url(#_lgradient_81)"/></g></svg>

<svg xmlns="http://www.w3.org/2000/svg" style="isolation:isolate" width="256" height="256"><defs><clipPath id="a"><path d="M0 0h256v256H0z"/></clipPath></defs><g clip-path="url(#a)"><defs><filter id="b" width="270.648" height="254.338" x="-7.32" y="2.95" filterUnits="userSpaceOnUse"><feGaussianBlur xmlns="http://www.w3.org/2000/svg" in="SourceGraphic" stdDeviation="4.294"/><feOffset xmlns="http://www.w3.org/2000/svg" dy="4" result="pf_100_offsetBlur"/><feFlood xmlns="http://www.w3.org/2000/svg" flood-opacity=".4"/><feComposite xmlns="http://www.w3.org/2000/svg" in2="pf_100_offsetBlur" operator="in" result="pf_100_dropShadow"/><feBlend xmlns="http://www.w3.org/2000/svg" in="SourceGraphic" in2="pf_100_dropShadow"/></filter></defs><path fill="#D9D9D9" d="M165.685 11.947c74.055 0 84.639 10.557 84.639 84.544v59.251c0 73.986-10.584 84.543-84.639 84.543h-75.37c-74.055 0-84.639-10.557-84.639-84.543V96.491c0-73.987 10.584-84.544 84.639-84.544h75.37z" filter="url(#b)"/><g opacity=".4"><linearGradient id="c" x1=".517" x2=".517" y2="1"><stop offset="0%" stop-color="#fff"/><stop offset="12.5%" stop-opacity=".098" stop-color="#fff"/><stop offset="92.5%" stop-opacity=".098"/><stop offset="100%" stop-opacity=".498"/></linearGradient><path fill="none" stroke="url(#c)" stroke-linecap="round" stroke-linejoin="round" stroke-width="4.077" d="M165.685 11.947c74.055 0 84.639 10.557 84.639 84.544v59.251c0 73.986-10.584 84.543-84.639 84.543h-75.37c-74.055 0-84.639-10.557-84.639-84.543V96.491c0-73.987 10.584-84.544 84.639-84.544h75.37z" vector-effect="non-scaling-stroke"/></g><path fill="#37A6E6" d="M77.129 75.377c-9.523 10.733-20.684 24.724-21.285 27.425-.705 3.166-.477 3.524 2.116 3.352 1.598-.105 5.096-2.2 7.773-4.653 2.925-2.679 6.51-4.646 8.981-4.925 3.838-.433 4.954.261 16.658 10.374 1.519 1.313 2.384 2.088 3.521 3.083-.067.376-.122.759-.149 1.15-.131 1.913.222 3.803-.273 6.481a30.342 30.342 0 0 1-2.065 6.795c-2.754 6.391-4.105 10.667-5.26 14.58-.932 3.157-1.554 6.124-1.855 10.203-.552 7.486-.355 13.763 4.089 17.624l-.002.002.007.004c.003.003.006.004.01.009.003.003.006.004.01.009a.016.016 0 0 0 .007.004l.001-.001c4.465 3.836 10.783 3.189 18.212 1.645 4.048-.841 6.938-1.848 9.977-3.184 3.768-1.657 7.872-3.553 13.908-7.108a31.183 31.183 0 0 1 6.534-2.934c2.618-.843 4.56-.751 6.459-1.135.241-.047.469-.122.703-.186 2.25 1.757 5.156 4.145 8.417 6.963 15.389 13.297 15.86 14.426 9.818 23.479-7.134 10.688-5.315 14.909 3.567 8.273 6.795-5.077 32.232-35.407 33.148-39.524.704-3.165.478-3.522-2.115-3.349-1.598.104-5.097 2.198-7.775 4.651-2.924 2.679-6.51 4.646-8.981 4.925-3.838.433-4.954-.261-16.658-10.375-3.873-3.346-6.449-5.597-8.311-7.363.054-.33.105-.663.129-1.005.131-1.912-.222-3.802.272-6.481a30.334 30.334 0 0 1 2.066-6.795c2.754-6.391 4.104-10.666 5.26-14.58.932-3.157 1.554-6.124 1.855-10.203.552-7.486.355-13.763-4.089-17.624l.001-.002-.006-.004-.018-.013-.006-.005-.002.002c-4.465-3.837-10.782-3.189-18.211-1.645-4.049.841-6.939 1.848-9.978 3.184-3.767 1.657-7.872 3.553-13.908 7.107a31.055 31.055 0 0 1-6.534 2.934c-2.618.844-4.559.751-6.458 1.136-.289.058-.564.142-.84.222-1.198-.994-2.114-1.695-3.466-2.863-15.389-13.298-15.862-14.425-9.82-23.478 7.134-10.688 5.315-14.909-3.567-8.273-1.699 1.269-4.564 4.116-7.919 7.738a266.24 266.24 0 0 0-3.945 4.358l-.003-.004zm24.592 36.3c9.914-11.217 31.349-15.111 41.821-6.062 10.471 9.048 10.923 25.476 1.009 36.693-9.913 11.217-26.439 12.975-36.911 3.926-10.471-9.048-15.833-23.341-5.919-34.557z"/><path fill="#272727" d="M131.735 55.501c-14.441-.027-32.44.869-34.893 2.199-2.874 1.559-2.997 1.964-1.159 3.782 1.132 1.119 5.028 2.346 8.658 2.725 3.965.414 7.823 1.79 9.661 3.446 2.855 2.572 3.061 3.86 3.061 19.229 0 1.995.024 2.667-.404 4.65-.621 2.877-3.879 3.602-5.716 4.707a31.092 31.092 0 0 1-6.534 2.934c-6.679 2.155-10.823 3.963-14.564 5.678-3.018 1.383-5.686 2.872-8.991 5.333-6.064 4.515-10.714 8.792-10.731 14.642h-.002v.044h.002c.017 5.849 4.667 10.127 10.731 14.642 3.305 2.461 5.973 3.949 8.991 5.333 3.741 1.715 7.885 3.523 14.564 5.678a31.092 31.092 0 0 1 6.534 2.934c2.391 1.216 5.391 2.196 5.719 4.462.178 1.527.237 6.567.237 10.849 0 20.207-.55 21.301-11.42 22.76-12.834 1.722-14.851 5.854-3.953 8.1 8.338 1.718 48.174.698 51.912-1.329 2.874-1.559 2.997-1.962 1.159-3.779-1.132-1.12-5.028-2.349-8.658-2.728-3.965-.414-7.823-1.79-9.661-3.446-2.855-2.572-3.061-3.86-3.061-19.229 0-5.086-.171-8.501.139-11.034 1.142-2.67 4.679-3.874 5.964-4.626a31.114 31.114 0 0 1 6.534-2.934c6.679-2.155 10.824-3.963 14.565-5.678 3.017-1.384 5.686-2.872 8.991-5.333 6.063-4.515 10.714-8.793 10.73-14.642h.003v-.04h-.003c-.016-5.849-4.667-10.126-10.73-14.642-3.305-2.46-5.974-3.949-8.991-5.332-3.741-1.716-12.363-6.18-19.042-8.335-4.887-2.369-5.958-3.057-7.072-5.63-.961-2.221-.697-3.648-.697-5.424 0-20.207.323-19.53 11.193-20.989 12.834-1.722 14.851-5.854 3.953-8.1-2.085-.43-6.138-.689-11.103-.803a268.835 268.835 0 0 0-5.916-.07v-.004zm-6.604 44.446c15.065 0 27.278 11.147 27.278 24.897 0 13.751-12.213 24.898-27.278 24.898-15.066 0-27.279-11.147-27.279-24.898 0-13.75 12.213-24.897 27.279-24.897z"/><path fill="#234DB8" d="M129.802 55.501c-14.441-.027-32.44.869-34.893 2.199-2.874 1.559-2.997 1.964-1.159 3.782 1.132 1.119 5.028 2.346 8.658 2.725 3.965.414 7.822 1.79 9.66 3.446 2.856 2.572 3.061 3.86 3.061 19.229 0 1.995.025 2.667-.403 4.65-.621 2.877-3.879 3.602-5.716 4.707a31.092 31.092 0 0 1-6.534 2.934c-6.679 2.155-10.824 3.963-14.565 5.678-3.017 1.383-5.686 2.872-8.99 5.333-6.064 4.515-10.715 8.792-10.731 14.642h-.002v.044h.002c.016 5.849 4.667 10.127 10.731 14.642 3.304 2.461 5.973 3.949 8.99 5.333 3.741 1.715 7.886 3.523 14.565 5.678a31.092 31.092 0 0 1 6.534 2.934c2.391 1.216 5.391 2.196 5.719 4.462.178 1.527.236 6.567.236 10.849 0 20.207-.549 21.301-11.419 22.76-12.834 1.722-14.851 5.854-3.953 8.1 8.338 1.718 48.174.698 51.911-1.329 2.874-1.559 2.998-1.962 1.16-3.779-1.133-1.12-5.028-2.349-8.659-2.728-3.965-.414-7.822-1.79-9.66-3.446-2.855-2.572-3.061-3.86-3.061-19.229 0-5.086-.171-8.501.138-11.034 1.143-2.67 4.679-3.874 5.965-4.626a31.092 31.092 0 0 1 6.534-2.934c6.679-2.155 10.824-3.963 14.565-5.678 3.017-1.384 5.686-2.872 8.99-5.333 6.064-4.515 10.715-8.793 10.731-14.642h.002v-.04h-.002c-.016-5.849-4.667-10.126-10.731-14.642-3.304-2.46-5.973-3.949-8.99-5.332-3.741-1.716-12.364-6.18-19.043-8.335-4.886-2.369-5.958-3.057-7.071-5.63-.961-2.221-.698-3.648-.698-5.424 0-20.207.324-19.53 11.193-20.989 12.834-1.722 14.852-5.854 3.953-8.1-2.084-.43-6.137-.689-11.103-.803a268.742 268.742 0 0 0-5.915-.07v-.004zm-6.605 44.446c15.066 0 27.279 11.147 27.279 24.897 0 13.751-12.213 24.898-27.279 24.898-15.065 0-27.279-11.147-27.279-24.898 0-13.75 12.214-24.897 27.279-24.897z"/></g></svg>
